!!!COM: Tongmi, Aku
!!!CDT: b. 1913
!!!OTL: National Anthem, Bhutan
!!!ENC: Davis, Matthew J.
!!Vocal Line Only
**kern
*clefG2
*k[f#]
*G:
*M2/2
=1-
4cc
=2
4b
4g
4b
8cc
8dd
=3
6cc
6dd
6cc
4b
4g
8b
8cc
=4
4.dd
8cc
16ee
16dd
16cc
16b
8cc
8dd
=5
2.b
8b
8cc
=6
4b
4g
4b
8cc
8dd
=7
6cc
6dd
6cc
4b
4g
8b
8cc
=8
4.dd
8cc
16ee
16dd
16cc
16b
8cc
8dd
=9
2.b
8b
8cc
=10
4.dd
8cc
16ee
16dd
16cc
16b
8cc
8dd
=11
2.b
8b
8cc
=12
4ffn
4cc
8ffn
8cc
4dd
=13
6cc
6dd
6cc
4b
4g
8b
8cc
=14
4.dd
8cc
16ee
16dd
16cc
16b
8cc
8dd
=15
2.b
8b
8cc
=16
4ffn
4cc
8ffn
8cc
4dd
=17
6cc
6dd
6cc
4b
4g
8b
8cc
=18
4.dd
8cc
16ee
16dd
16cc
16b
8cc
8dd
=19
2.b
6b
6cc
6dd
=20
4b
4g
8b
8cc
8dd
8cc
=21
2.b
==|!
*-
